src/images/mobile-icons/ask-bubble.svg

<svg viewBox="0 0 512 512" xmlns="http://www.w3.org/2000/svg" xmlns:xlink="http://www.w3.org/1999/xlink">
  <title>ask-bubble</title>
  <path d="M384,85.3333333 C407.564149,85.3333333 426.666667,104.435851 426.666667,128 L426.666667,384 C426.666667,407.564149 407.564149,426.666667 384,426.666667 L307.199333,426.666333 L256,490.666667 L204.799333,426.666333 L128,426.666667 C104.435851,426.666667 85.3333333,407.564149 85.3333333,384 L85.3333333,128 C85.3333333,104.435851 104.435851,85.3333333 128,85.3333333 L384,85.3333333 Z M256,320 C244.217925,320 234.666667,329.551259 234.666667,341.333333 C234.666667,353.115408 244.217925,362.666667 256,362.666667 C267.782075,362.666667 277.333333,353.115408 277.333333,341.333333 C277.333333,329.551259 267.782075,320 256,320 Z M317.152132,192.571504 C307.828705,163.601537 277.786457,145.512757 246.481024,150.019624 C215.175592,154.526491 192.015739,180.274479 192,210.588953 C192,219.04015 199.154513,225.891199 207.980052,225.891199 C216.805591,225.891199 223.960104,219.04015 223.960104,210.588953 C223.965939,195.411259 235.5617,182.519307 251.23578,180.264361 C266.90986,178.009416 281.949706,187.069446 286.61267,201.575465 C291.275634,216.081484 284.159755,231.672124 269.87462,238.247942 C251.701859,246.550508 240.098003,264.083494 240.01518,283.364421 C240.01518,291.815618 247.169693,298.666667 255.995232,298.666667 C264.820771,298.666667 271.975284,291.815618 271.975284,283.364421 C271.975284,275.964744 276.476707,269.139799 283.754008,265.835088 C312.278036,252.68578 326.47556,221.541472 317.152132,192.571504 Z" fill="#000" stroke="none" stroke-width="1" fill-rule="evenodd"></path>
</svg>

<svg viewBox="0 0 512 512" xmlns="http://www.w3.org/2000/svg" xmlns:xlink="http://www.w3.org/1999/xlink">
  <title>ask-bubble</title>
  <path d="M384 85.333c23.564 0 42.667 19.103 42.667 42.667v256c0 23.564-19.103 42.667-42.667 42.667h-76.8l-51.2 64-51.2-64H128c-23.564 0-42.667-19.103-42.667-42.667V128c0-23.564 19.103-42.667 42.667-42.667h256zM256 320c-11.782 0-21.333 9.551-21.333 21.333 0 11.782 9.55 21.334 21.333 21.334 11.782 0 21.333-9.552 21.333-21.334S267.783 320 256 320zm61.152-127.428c-9.323-28.97-39.366-47.06-70.671-42.552-31.305 4.506-54.465 30.254-54.481 60.569 0 8.451 7.155 15.302 15.98 15.302 8.826 0 15.98-6.85 15.98-15.302.006-15.178 11.602-28.07 27.276-30.325 15.674-2.255 30.714 6.805 35.377 21.311 4.663 14.506-2.453 30.097-16.738 36.673-18.173 8.303-29.777 25.835-29.86 45.116 0 8.452 7.155 15.303 15.98 15.303 8.826 0 15.98-6.851 15.98-15.303 0-7.4 4.502-14.224 11.779-17.529 28.524-13.15 42.722-44.294 33.398-73.263z" fill="#000" stroke="none" stroke-width="1" fill-rule="evenodd"></path>
</svg>
